!!!OTL: ES LEBEN DIE SOLDATEN, SO RECHT VON GOTTES GNADEN
!!!ARE: Europa, Mitteleuropa, Deutschland
!!!SCT: Z0211
!!!YEM: Copyright 1995, estate of Helmut Schaffrath.
**kern
*ICvox
*Ivox
*M2/4
*k[f#c#]
*D:
{16d
16f#
=1
8a
16a
16dd
8f#
8d
=2
8b
8a
8r}
{16d
16f#
=3
8a
8a
16b
16a
16g
16f#
=4
8f#
8e
8r}
{16d
16f#
=5
8a
8f#
16g
16f#
16g
16a
=6
4f#
8r}
{16dd
16b
=7
8.a
16f#
16a
16g
16f#
16e
=8
16d}
{16a
16a
16a
16a
16f#
16g
16e
=9
16d
16a
16a
16a
16a
16f#}
{16dd
16b
=10
8.a
16f#
16a
16g
16f#
16e
=11
4d
8r}
==
!!!AGN: Soldaten - Lied (1813 - 1815)
!!!ONB: ESAC (Essen Associative Code) Database: ZUCCAL
!!!AMT: simple duple
!!!AIN: vox
!!!EED: Helmut Schaffrath
!!!EEV: 1.0
*-
